Golden_Hour_Cinematic.xmp
<?xml version='1.0' encoding='utf-8'?>
<x:xmpmeta xmlns:x="adobe:ns:meta/" x:xmptk="Adobe XMP Core 7.0-c000 1.000000, 0000/00/00-00:00:00"><rdf:RDF xmlns:rdf="http://www.w3.org/1999/02/22-rdf-syntax-ns#"><rdf:Description rdf:about="" xmlns:crs="http://ns.adobe.com/camera-raw-settings/1.0/" crs:PresetType="Normal" crs:Cluster="" crs:UUID="58CEADC78CBF45BF883F4D3ADBB6F02E" crs:SupportsAmount2="True" crs:SupportsAmount="True" crs:SupportsColor="True" crs:SupportsMonochrome="True" crs:SupportsHighDynamicRange="True" crs:SupportsNormalDynamicRange="True" crs:SupportsSceneReferred="True" crs:SupportsOutputReferred="True" crs:RequiresRGBTables="False" crs:CameraModelRestriction="" crs:Copyright="" crs:ContactInfo="" crs:Version="17.2" crs:ProcessVersion="15.4" crs:ToneCurveName2012="Medium Contrast" crs:HasSettings="True" crs:Contrast2012="5" crs:Highlights2012="-20" crs:Shadows2012="30" crs:Whites2012="10" crs:Blacks2012="-15" crs:Texture="10" crs:Clarity2012="15" crs:Dehaze="0" crs:Vibrance="20" crs:Saturation="10" crs:ParametricShadows="5" crs:ParametricDarks="10" crs:ParametricLights="-10" crs:ParametricHighlights="-5" crs:ParametricShadowSplit="25" crs:ParametricMidtoneSplit="50" crs:ParametricHighlightSplit="75" crs:Sharpness="40" crs:SharpenRadius="1.0" crs:SharpenDetail="25" crs:SharpenEdgeMasking="10" crs:LuminanceSmoothing="25" crs:ColorNoiseReduction="25" crs:ColorNoiseReductionDetail="50" crs:ColorNoiseReductionSmoothness="50" crs:HueAdjustmentRed="-10" crs:HueAdjustmentOrange="0" crs:HueAdjustmentYellow="5" crs:HueAdjustmentGreen="-10" crs:HueAdjustmentAqua="-20" crs:HueAdjustmentBlue="-30" crs:HueAdjustmentPurple="0" crs:HueAdjustmentMagenta="0" crs:SaturationAdjustmentRed="5" crs:SaturationAdjustmentOrange="10" crs:SaturationAdjustmentYellow="15" crs:SaturationAdjustmentGreen="-5" crs:SaturationAdjustmentAqua="-10" crs:SaturationAdjustmentBlue="-20" crs:SaturationAdjustmentPurple="0" crs:SaturationAdjustmentMagenta="0" crs:LuminanceAdjustmentRed="10" crs:LuminanceAdjustmentOrange="20" crs:LuminanceAdjustmentYellow="15" crs:LuminanceAdjustmentGreen="0" crs:LuminanceAdjustmentAqua="0" crs:LuminanceAdjustmentBlue="-10" crs:LuminanceAdjustmentPurple="0" crs:LuminanceAdjustmentMagenta="0" crs:SplitToningShadowHue="40" crs:SplitToningShadowSaturation="10" crs:SplitToningHighlightHue="40" crs:SplitToningHighlightSaturation="20" crs:SplitToningBalance="20" crs:ColorGradeMidtoneHue="35" crs:ColorGradeMidtoneSat="15" crs:ColorGradeShadowLum="0" crs:ColorGradeMidtoneLum="0" crs:ColorGradeHighlightLum="10" crs:ColorGradeBlending="70" crs:ColorGradeGlobalHue="30" crs:ColorGradeGlobalSat="5" crs:ColorGradeGlobalLum="0" crs:GrainAmount="10" crs:GrainSize="25" crs:GrainFrequency="50" crs:PostCropVignetteAmount="-15" crs:ShadowTint="5" crs:RedHue="-5" crs:RedSaturation="10" crs:GreenHue="-10" crs:GreenSaturation="-5" crs:BlueHue="-15" crs:BlueSaturation="-10" crs:CurveRefineSaturation="0" crs:OverrideLookVignette="False" crs:Name="Golden Hour Cinematic"><crs:ToneCurvePV2012><rdf:Seq><rdf:li>0, 0</rdf:li><rdf:li>128, 120</rdf:li><rdf:li>255, 240</rdf:li></rdf:Seq></crs:ToneCurvePV2012><crs:ToneCurvePV2012Red><rdf:Seq><rdf:li>0, 0</rdf:li><rdf:li>128, 130</rdf:li><rdf:li>255, 255</rdf:li></rdf:Seq></crs:ToneCurvePV2012Red><crs:ToneCurvePV2012Green><rdf:Seq><rdf:li>0, 0</rdf:li><rdf:li>128, 128</rdf:li><rdf:li>255, 255</rdf:li></rdf:Seq></crs:ToneCurvePV2012Green><crs:ToneCurvePV2012Blue><rdf:Seq><rdf:li>0, 0</rdf:li><rdf:li>128, 118</rdf:li><rdf:li>255, 240</rdf:li></rdf:Seq></crs:ToneCurvePV2012Blue><crs:PointColors><rdf:Seq><rdf:li>#F1C27D</rdf:li><rdf:li>#E8A87C</rdf:li><rdf:li>#FFD96A</rdf:li></rdf:Seq></crs:PointColors></rdf:Description></rdf:RDF></x:xmpmeta>